Origami/24x24/apps/microscope.svg

<svg width="24" height="24" version="1.1" viewBox="0 0 24 24" xmlns="http://www.w3.org/2000/svg">
 <path d="m6.3143243 19.500042h5.4322887 2.077835 4.861437c0.725742 0 1.314115 0.671591 1.314115 1.499979 0 0.828389-0.588373 1.499979-1.314115 1.499979h-4.861437-3.070343-4.4397807c-0.7257419 0-1.3141152-0.67159-1.3141152-1.499979 0-0.828438 0.5883293-1.499979 1.3141152-1.499979z" style="opacity:.2"/>
 <path d="m11.521652 13.288254c0.0447-0.169143 0.155715-0.313903 0.308709-0.402429l2.238444-1.294843c0.318523-0.184257 0.728619-0.0793 0.91578 0.234515l1.423248 2.386893c0.187071 0.313858 0.08051 0.717649-0.238101 0.901992l-2.238443 1.294844c-0.137963 0.07978-0.293009 0.105352-0.439714 0.08325-0.192113-0.029-0.369952-0.139796-0.476066-0.31777l-1.423247-2.386892c-0.08988-0.15069-0.11526-0.330421-0.07061-0.499564z" style="opacity:.2"/>
 <path d="m9.3595233 5.3732857c-0.3259419-0.0072198-0.6549273 0.110312-0.9091668 0.3535106l-2.1786806 2.0839555c-2.93647 2.8091592-3.0396669 7.4833062-0.2304658 10.419777l0.7363182 0.76952h3.5253417l-2.4208651-2.531215c-1.8379798-1.921296-1.7699318-4.979266 0.1513649-6.8172879l2.1786802-2.0839549c0.508394-0.4863543 0.52546-1.2923205 0.039065-1.8007564-0.243198-0.254197-0.5656472-0.3863302-0.8915892-0.3935491z" style="opacity:.2"/>
 <rect transform="scale(-1,1)" x="-18" y="18" width="5" height="1" style="fill:#cccccc"/>
 <path d="m10.669921 21.75001h7.689389c0.703564 0 1.273957-0.320396 1.273957-1.023959 0-0.703564-0.570393-1.273957-1.273957-1.273957h-7.145113l-3.3318631-3.48287c-1.8379799-1.921296-1.7702053-4.979684 0.1510914-6.8177054l2.1781677-2.083726c0.508394-0.4863542 0.526272-1.2927685 0.039875-1.8012044-0.4863968-0.5083938-1.2927261-0.5262717-1.801205-0.0398744l-2.1781681 2.0837254c-2.9364699 2.8091598-3.0400426 7.4836458-0.2308413 10.420115l3.7081053 3.876141c0.2403536 0.251223 0.5728991 0.143315 0.9205621 0.143315z" style="fill:#3f3f3f"/>
 <path d="m11.521652 12.788261c0.0447-0.169143 0.155715-0.313903 0.308709-0.402429l2.238444-1.294843c0.318523-0.184257 0.728619-0.0793 0.91578 0.234515l1.423248 2.386893c0.187071 0.313858 0.08051 0.717648-0.238101 0.901992l-2.238443 1.294844c-0.137963 0.07978-0.293009 0.105352-0.439714 0.08325-0.192113-0.029-0.369952-0.139796-0.476066-0.31777l-1.423247-2.386892c-0.08988-0.15069-0.11526-0.330421-0.07061-0.499564z" style="fill:#4f4f4f"/>
 <path d="m6.0694757 5.1256047c0.142859-0.5598402 0.4911101-1.0295077 0.9806448-1.3224636l1.6788071-1.0047039c0.4201162-0.2513766 0.9162857-0.3484792 1.3971534-0.2734338 0.63542 0.099173 1.186452 0.4797242 1.511772 1.0441279l4.276512 7.4199007c0.0836 0.144978 0.107196 0.317803 0.06564 0.480485-0.04151 0.162682-0.144725 0.301914-0.287003 0.387058l-4.271329 2.556149c-0.128262 0.07674-0.272406 0.101328-0.408795 0.08007-0.178605-0.02789-0.343939-0.134456-0.442593-0.305632l-4.2765064-7.4198552c-0.2875005-0.498866-0.3671614-1.0818619-0.2243029-1.6417021z" style="opacity:.2"/>
 <path d="m6.0694757 4.6256117c0.142859-0.5598403 0.4911101-1.0295077 0.9806448-1.3224636l1.6788071-1.0047039c0.4201162-0.2513766 0.9162857-0.3484793 1.3971534-0.2734339 0.63542 0.099173 1.186452 0.4797242 1.511772 1.044128l4.276512 7.4199007c0.0836 0.144978 0.107196 0.317803 0.06564 0.480485-0.04151 0.162682-0.144725 0.301914-0.287003 0.387058l-4.271329 2.556149c-0.128262 0.07674-0.272406 0.101328-0.408795 0.08007-0.178605-0.02789-0.343939-0.134456-0.442593-0.305632l-4.2765064-7.4198552c-0.2875005-0.4988661-0.3671614-1.0818619-0.2243029-1.6417021z" style="fill:#ff9b32"/>
 <path d="m9.7638147 2.0002858c-0.362107 0.00743-0.720055 0.1093149-1.0351421 0.2978474l-1.6786876 1.0048688c-0.4895346 0.2929559-0.8375958 0.7624069-0.9804548 1.3222472-0.069523 0.27245-0.08399 0.5502248-0.049804 0.8212775 0.01118-0.107284 0.022665-0.214936 0.049804-0.3212845 0.142859-0.5598402 0.4909202-1.0292913 0.9804548-1.3222472l1.6786876-1.0048688c0.4201162-0.2513766 0.9165737-0.3484791 1.3974414-0.2734337 0.63542 0.099173 1.186378 0.4805036 1.511698 1.0449073l4.276307 7.4198182c0.01224 0.02123 0.01379 0.04605 0.02344 0.06836 0.01286-0.03009 0.03378-0.05573 0.04199-0.08789 0.04155-0.162683 0.01817-0.335484-0.06543-0.480462l-4.276307-7.4198192c-0.32532-0.5644038-0.876278-0.9457342-1.511698-1.0449073-0.120217-0.0187614-0.241597-0.0268916-0.3622993-0.0244137z" style="fill:#ffffff;opacity:.2"/>
 <path d="m6.3143243 19.000049h5.4322887 2.077835 4.861437c0.725742 0 1.314115 0.671591 1.314115 1.499979 0 0.828389-0.588373 1.499979-1.314115 1.499979h-4.861437-3.070343-4.4397807c-0.7257419 0-1.3141152-0.67159-1.3141152-1.499979 0-0.828438 0.5883293-1.499979 1.3141152-1.499979z" style="fill:#ff9b32"/>
 <path d="M 6.5000003,12.5 C 8.4299069,12.5 10,10.929907 10,8.9999999 10,7.0700935 8.4299069,5.4999996 6.5000003,5.4999996 4.5700937,5.4999996 3,7.0700935 3,8.9999999 3,10.929907 4.5700937,12.5 6.5000003,12.5 Z" style="opacity:.2"/>
 <path d="M 6.5000003,12 C 8.4299069,12 10,10.429907 10,8.4999999 10,6.5700935 8.4299069,4.9999996 6.5000003,4.9999996 4.5700937,4.9999996 3,6.5700935 3,8.4999999 3,10.429907 4.5700937,12 6.5000003,12 Z" style="fill:#4f4f4f"/>
 <path d="m 6.4999791,7.5000418 c 0.8270939,0 1.499979,0.6728852 1.499979,1.4999791 C 7.9999581,9.8271149 7.327073,10.5 6.4999791,10.5 5.6728851,10.5 5,9.8271149 5,9.0000209 5,8.172927 5.6728851,7.5000418 6.4999791,7.5000418 Z" style="opacity:.2"/>
 <path d="m 6.4999791,7.0000418 c 0.8270939,0 1.499979,0.6728852 1.499979,1.4999791 C 7.9999581,9.3271149 7.327073,10 6.4999791,10 5.6728851,10 5,9.3271149 5,8.5000209 5,7.672927 5.6728851,7.0000418 6.4999791,7.0000418 Z" style="fill:#cccccc"/>
 <path d="m6.3146438 19.000049c-0.7257859 0-1.3144347 0.67154-1.3144347 1.499979 0 0.0855 0.00944 0.168401 0.021485 0.249996 0.104606-0.708968 0.6420771-1.249982 1.2929505-1.249982h5.4315657 2.078096 4.86126c0.650834 0 1.188337 0.541042 1.29295 1.249982 0.0120407-0.081595 0.0214837-0.164494 0.0214837-0.249996 0-0.828389-0.588693-1.499979-1.314435-1.499979h-4.86126-2.078096-5.4315652z" style="fill:#ffffff;opacity:.2"/>
</svg>

<svg xmlns="http://www.w3.org/2000/svg" width="24" height="24" x="0" y="0" version="1.1" viewBox="0 0 24 24" xml:space="preserve">
 <path style="opacity:0.2" d="m 6.3143243,19.500042 5.4322887,0 2.077835,0 4.861437,0 C 19.411627,19.500042 20,20.171633 20,21.000021 20,21.82841 19.411627,22.5 18.685885,22.5 l -4.861437,0 -3.070343,0 -4.4397807,0 c -0.7257419,0 -1.3141152,-0.67159 -1.3141152,-1.499979 0,-0.828438 0.5883293,-1.499979 1.3141152,-1.499979 z"/>
 <path d="m 11.521652,13.288254 c 0.0447,-0.169143 0.155715,-0.313903 0.308709,-0.402429 l 2.238444,-1.294843 c 0.318523,-0.184257 0.728619,-0.0793 0.91578,0.234515 l 1.423248,2.386893 c 0.187071,0.313858 0.08051,0.717649 -0.238101,0.901992 l -2.238443,1.294844 c -0.137963,0.07978 -0.293009,0.105352 -0.439714,0.08325 -0.192113,-0.029 -0.369952,-0.139796 -0.476066,-0.31777 l -1.423247,-2.386892 c -0.08988,-0.15069 -0.11526,-0.330421 -0.07061,-0.499564 z" style="opacity:0.2"/>
 <path style="opacity:0.2" d="M 9.3595233,5.3732857 C 9.0335814,5.3660659 8.704596,5.4835977 8.4503565,5.7267963 L 6.2716759,7.8107518 C 3.3352059,10.619911 3.232009,15.294058 6.0412101,18.230529 l 0.7363182,0.76952 3.5253417,0 -2.4208651,-2.531215 C 6.0440251,14.547538 6.1120731,11.489568 8.0333698,9.6515461 L 10.21205,7.5675912 C 10.720444,7.0812369 10.73751,6.2752707 10.251115,5.7668348 10.007917,5.5126378 9.6854678,5.3805046 9.3595258,5.3732857 Z"/>
 <rect width="5" height="1" x="-18" y="18" transform="scale(-1,1)" style="fill:#cccccc"/>
 <path style="fill:#3f3f3f" d="m 10.669921,21.75001 7.689389,0 c 0.703564,0 1.273957,-0.320396 1.273957,-1.023959 0,-0.703564 -0.570393,-1.273957 -1.273957,-1.273957 l -7.145113,0 -3.3318631,-3.48287 C 6.044354,14.047928 6.1121286,10.98954 8.0334253,9.1515186 L 10.211593,7.0677926 C 10.719987,6.5814384 10.737865,5.7750241 10.251468,5.2665882 9.7650712,4.7581944 8.9587419,4.7403165 8.450263,5.2267138 L 6.2720949,7.3104392 C 3.335625,10.119599 3.2320523,14.794085 6.0412536,17.730554 l 3.7081053,3.876141 c 0.2403536,0.251223 0.5728991,0.143315 0.9205621,0.143315 z"/>
 <path style="fill:#4f4f4f" d="m 11.521652,12.788261 c 0.0447,-0.169143 0.155715,-0.313903 0.308709,-0.402429 l 2.238444,-1.294843 c 0.318523,-0.184257 0.728619,-0.0793 0.91578,0.234515 l 1.423248,2.386893 c 0.187071,0.313858 0.08051,0.717648 -0.238101,0.901992 l -2.238443,1.294844 c -0.137963,0.07978 -0.293009,0.105352 -0.439714,0.08325 -0.192113,-0.029 -0.369952,-0.139796 -0.476066,-0.31777 l -1.423247,-2.386892 c -0.08988,-0.15069 -0.11526,-0.330421 -0.07061,-0.499564 z"/>
 <path d="M 6.0694757,5.1256047 C 6.2123347,4.5657645 6.5605858,4.096097 7.0501205,3.8031411 L 8.7289276,2.7984372 C 9.1490438,2.5470606 9.6452133,2.449958 10.126081,2.5250034 c 0.63542,0.099173 1.186452,0.4797242 1.511772,1.0441279 l 4.276512,7.4199007 c 0.0836,0.144978 0.107196,0.317803 0.06564,0.480485 -0.04151,0.162682 -0.144725,0.301914 -0.287003,0.387058 l -4.271329,2.556149 c -0.128262,0.07674 -0.272406,0.101328 -0.408795,0.08007 -0.178605,-0.02789 -0.343939,-0.134456 -0.442593,-0.305632 L 6.2937786,6.7673068 C 6.0062781,6.2684408 5.9266172,5.6854449 6.0694757,5.1256047 Z" style="opacity:0.2"/>
 <path style="fill:#ff9b32" d="M 6.0694757,4.6256117 C 6.2123347,4.0657714 6.5605858,3.596104 7.0501205,3.3031481 L 8.7289276,2.2984442 C 9.1490438,2.0470676 9.6452133,1.9499649 10.126081,2.0250103 c 0.63542,0.099173 1.186452,0.4797242 1.511772,1.044128 l 4.276512,7.4199007 c 0.0836,0.144978 0.107196,0.317803 0.06564,0.480485 -0.04151,0.162682 -0.144725,0.301914 -0.287003,0.387058 l -4.271329,2.556149 c -0.128262,0.07674 -0.272406,0.101328 -0.408795,0.08007 -0.178605,-0.02789 -0.343939,-0.134456 -0.442593,-0.305632 L 6.2937786,6.2673138 C 6.0062781,5.7684477 5.9266172,5.1854519 6.0694757,4.6256117 Z"/>
 <path style="opacity:0.2;fill:#ffffff" d="m 9.7638147,2.0002858 c -0.362107,0.00743 -0.720055,0.1093149 -1.0351421,0.2978474 L 7.049985,3.303002 C 6.5604504,3.5959579 6.2123892,4.0654089 6.0695302,4.6252492 c -0.069523,0.27245 -0.08399,0.5502248 -0.049804,0.8212775 0.01118,-0.107284 0.022665,-0.214936 0.049804,-0.3212845 C 6.2123892,4.565402 6.5604504,4.0959509 7.049985,3.802995 L 8.7286726,2.7981262 C 9.1487888,2.5467496 9.6452463,2.4496471 10.126114,2.5246925 c 0.63542,0.099173 1.186378,0.4805036 1.511698,1.0449073 l 4.276307,7.4198182 c 0.01224,0.02123 0.01379,0.04605 0.02344,0.06836 0.01286,-0.03009 0.03378,-0.05573 0.04199,-0.08789 0.04155,-0.162683 0.01817,-0.335484 -0.06543,-0.480462 L 11.637812,3.0696068 C 11.312492,2.505203 10.761534,2.1238726 10.126114,2.0246995 10.005897,2.0059381 9.884517,1.9978079 9.7638147,2.0002858 Z"/>
 <path d="m 6.3143243,19.000049 5.4322887,0 2.077835,0 4.861437,0 c 0.725742,0 1.314115,0.671591 1.314115,1.499979 0,0.828389 -0.588373,1.499979 -1.314115,1.499979 l -4.861437,0 -3.070343,0 -4.4397807,0 c -0.7257419,0 -1.3141152,-0.67159 -1.3141152,-1.499979 0,-0.828438 0.5883293,-1.499979 1.3141152,-1.499979 z" style="fill:#ff9b32"/>
 <path d="M 6.5000003,12.5 C 8.4299069,12.5 10,10.929907 10,8.9999999 10,7.0700935 8.4299069,5.4999996 6.5000003,5.4999996 4.5700937,5.4999996 3,7.0700935 3,8.9999999 3,10.929907 4.5700937,12.5 6.5000003,12.5 Z" style="opacity:0.2"/>
 <path style="fill:#4f4f4f" d="M 6.5000003,12 C 8.4299069,12 10,10.429907 10,8.4999999 10,6.5700935 8.4299069,4.9999996 6.5000003,4.9999996 4.5700937,4.9999996 3,6.5700935 3,8.4999999 3,10.429907 4.5700937,12 6.5000003,12 Z"/>
 <path d="m 6.4999791,7.5000418 c 0.8270939,0 1.499979,0.6728852 1.499979,1.4999791 C 7.9999581,9.8271149 7.327073,10.5 6.4999791,10.5 5.6728851,10.5 5,9.8271149 5,9.0000209 5,8.172927 5.6728851,7.5000418 6.4999791,7.5000418 Z" style="opacity:0.2"/>
 <path style="fill:#cccccc" d="m 6.4999791,7.0000418 c 0.8270939,0 1.499979,0.6728852 1.499979,1.4999791 C 7.9999581,9.3271149 7.327073,10 6.4999791,10 5.6728851,10 5,9.3271149 5,8.5000209 5,7.672927 5.6728851,7.0000418 6.4999791,7.0000418 Z"/>
 <path style="opacity:0.2;fill:#ffffff" d="m 6.3146438,19.000049 c -0.7257859,0 -1.3144347,0.67154 -1.3144347,1.499979 0,0.0855 0.00944,0.168401 0.021485,0.249996 0.104606,-0.708968 0.6420771,-1.249982 1.2929505,-1.249982 l 5.4315657,0 2.078096,0 4.86126,0 c 0.650834,0 1.188337,0.541042 1.29295,1.249982 C 19.990557,20.668429 20,20.58553 20,20.500028 20,19.671639 19.411307,19.000049 18.685565,19.000049 l -4.86126,0 -2.078096,0 -5.4315652,0 z"/>
</svg>
